!!!OTL: DE KUCKUK UP DEN TUNE SAT
!!!ARE: Europa, Mitteleuropa, Deutschland, Westfalen
!!!SCT: Z0140
!!!YEM: Copyright 1995, estate of Helmut Schaffrath.
**kern
*ICvox
*Ivox
*M2/4
*k[b-e-]
*B-:
{8dd
=1
8cc
8b-
8a
8b-
=2
4cc
4dd
=3
4b-
8r}
{8dd
=4
8cc
8b-
8a
8b-
=5
4cc
4dd
=6
4b-
8r}
{8f
=7
16b-
16b-
8cc
8dd
8ee-
=8
8ff
16ff
16een
4ff
=9
8ff
16gg
16een
8ff}
{8dd
=10
16cc
16cc
8b-
8a
8b-
=11
4cc
4dd
=12
4b-
8r}
==
!!!AGN: Erzaehlung, lustige Romanze
!!!ONB: ESAC (Essen Associative Code) Database: ZUCCAL
!!!AMT: simple duple
!!!AIN: vox
!!!EED: Helmut Schaffrath
!!!EEV: 1.0
*-
